public/assets/img/home1/icon/graphql-icon.svg

<svg width="24" height="24" viewBox="0 0 24 24" fill="none" xmlns="http://www.w3.org/2000/svg">
<mask id="mask0_1531_62660" style="mask-type:alpha" maskUnits="userSpaceOnUse" x="0" y="0" width="24" height="24">
<rect width="24" height="24" fill="#D9D9D9"/>
</mask>
<g mask="url(#mask0_1531_62660)">
</g>
<g clip-path="url(#clip0_1531_62660)">
<path d="M4.13589 17.992L3.29846 17.5075L12.6275 1.31793L13.465 1.80237L4.13589 17.992Z" fill="#E535AB"/>
<path d="M3.10681 16.2139H21.765V17.1828H3.10681V16.2139Z" fill="#E535AB"/>
<path d="M12.8087 22.1573L3.47612 16.7584L3.95961 15.9193L13.2922 21.3182L12.8087 22.1573ZM20.9159 8.08644L11.5833 2.68758L12.0668 1.84851L21.3994 7.24737L20.9159 8.08644Z" fill="#E535AB"/>
<path d="M3.96207 8.08254L3.47858 7.24353L12.8111 1.84467L13.2946 2.68368L3.96207 8.08254Z" fill="#E535AB"/>
<path d="M20.7437 17.9919L11.4146 1.80234L12.252 1.3179L21.5811 17.5075L20.7437 17.9919ZM3.8466 6.60102H4.81359V17.3987H3.8466V6.60102Z" fill="#E535AB"/>
<path d="M20.0639 6.60089H21.0309V17.3986H20.0639V6.60089Z" fill="#E535AB"/>
<path d="M12.644 21.7468L12.2217 21.0139L20.3386 16.3183L20.7609 17.0512L12.644 21.7468Z" fill="#E535AB"/>
<path d="M22.3125 17.7139C21.7533 18.6886 20.5067 19.0213 19.5339 18.461C18.5611 17.9007 18.2291 16.6517 18.7883 15.6769C19.3475 14.7022 20.5941 14.3695 21.5669 14.9299C22.5455 15.496 22.8776 16.7392 22.3125 17.7139ZM6.08349 8.32282C5.52427 9.29754 4.27768 9.63022 3.30487 9.06991C2.33206 8.50959 2.00002 7.26056 2.55924 6.28585C3.11846 5.31113 4.36505 4.97845 5.33786 5.53876C6.31067 6.10491 6.64271 7.34811 6.08349 8.32282ZM2.56506 17.7139C2.00584 16.7392 2.33788 15.496 3.31069 14.9299C4.2835 14.3695 5.52427 14.7022 6.08932 15.6769C6.64854 16.6517 6.3165 17.8949 5.34369 18.461C4.36505 19.0213 3.12428 18.6886 2.56506 17.7139ZM18.7941 8.32282C18.2349 7.34811 18.5669 6.10491 19.5397 5.53876C20.5125 4.97845 21.7533 5.31113 22.3184 6.28585C22.8776 7.26056 22.5455 8.50376 21.5727 9.06991C20.5999 9.63022 19.3533 9.29754 18.7941 8.32282ZM12.4388 23.428C11.3145 23.428 10.4058 22.5175 10.4058 21.391C10.4058 20.2645 11.3145 19.354 12.4388 19.354C13.5631 19.354 14.4718 20.2645 14.4718 21.391C14.4718 22.5116 13.5631 23.428 12.4388 23.428ZM12.4388 4.64576C11.3145 4.64576 10.4058 3.73525 10.4058 2.60878C10.4058 1.48232 11.3145 0.571808 12.4388 0.571808C13.5631 0.571808 14.4718 1.48232 14.4718 2.60878C14.4718 3.73525 13.5631 4.64576 12.4388 4.64576Z" fill="#E535AB"/>
</g>
<defs>
<clipPath id="clip0_1531_62660">
<rect width="20.8776" height="24" fill="white" transform="translate(2.00002 -0.00012207)"/>
</clipPath>
</defs>
</svg>

<svg xmlns="http://www.w3.org/2000/svg" width="24" height="24" fill="none" viewBox="0 0 24 24">
    <mask id="a" width="24" height="24" x="0" y="0" maskUnits="userSpaceOnUse" style="mask-type:alpha">
        <path fill="#d9d9d9" d="M0 0h24v24H0z"/>
    </mask>
    <g fill="#e535ab" clip-path="url(#b)">
        <path d="m4.136 17.992-.838-.485 9.33-16.19.837.485z"/>
        <path d="M3.107 16.214h18.658v.969H3.107z"/>
        <path d="m12.809 22.157-9.333-5.399.484-.839 9.332 5.4zm8.107-14.07-9.333-5.4.484-.838 9.332 5.398z"/>
        <path d="m3.962 8.083-.483-.84 9.332-5.398.484.839z"/>
        <path d="m20.744 17.992-9.33-16.19.838-.484 9.33 16.19zM3.847 6.6h.967v10.798h-.967z"/>
        <path d="M20.064 6.6h.967V17.4h-.967z"/>
        <path d="m12.644 21.747-.422-.733 8.117-4.696.422.733z"/>
        <path d="M22.313 17.714a2.034 2.034 0 0 1-2.78.747 2.04 2.04 0 0 1-.745-2.784 2.034 2.034 0 0 1 2.779-.747c.979.566 1.31 1.81.745 2.784M6.083 8.323a2.034 2.034 0 0 1-2.778.747 2.04 2.04 0 0 1-.746-2.784 2.034 2.034 0 0 1 2.779-.747 2.044 2.044 0 0 1 .745 2.784m-3.518 9.39a2.044 2.044 0 0 1 .746-2.783 2.035 2.035 0 0 1 2.778.747c.56.975.227 2.218-.745 2.784-.979.56-2.22.228-2.779-.747m16.23-9.39a2.044 2.044 0 0 1 .745-2.784 2.035 2.035 0 0 1 2.778.747 2.034 2.034 0 1 1-3.524 2.037m-6.356 15.105a2.033 2.033 0 0 1-2.033-2.037 2.033 2.033 0 1 1 4.066 0c0 1.12-.909 2.037-2.033 2.037m0-18.782a2.033 2.033 0 0 1-2.033-2.037 2.033 2.033 0 1 1 4.066 0 2.033 2.033 0 0 1-2.033 2.037"/>
    </g>
    <defs>
        <clipPath id="b">
            <path fill="#fff" d="M2 0h20.878v24H2z"/>
        </clipPath>
    </defs>
</svg>
